src/browser/themes/shared/zen-icons/nucleo/permissions-fill.svg

#filter dumbComments emptyLines substitution
# This Source Code Form is subject to the terms of the Mozilla Public
# License, v. 2.0. If a copy of the MPL was not distributed with this
# file, You can obtain one at http://mozilla.org/MPL/2.0/.
<svg xmlns="http://www.w3.org/2000/svg" height="18" width="18" viewBox="0 0 18 18"><g fill="context-fill" fill-opacity="context-fill-opacity" class="nc-icon-wrapper"><path d="M13.25,2H4.75c-1.517,0-2.75,1.233-2.75,2.75V13.25c0,1.517,1.233,2.75,2.75,2.75H13.25c1.517,0,2.75-1.233,2.75-2.75V4.75c0-1.517-1.233-2.75-2.75-2.75ZM5.25,6h1.25v-1c0-.414,.336-.75,.75-.75s.75,.336,.75,.75v3.5c0,.414-.336,.75-.75,.75s-.75-.336-.75-.75v-1h-1.25c-.414,0-.75-.336-.75-.75s.336-.75,.75-.75Zm3,6h-3c-.414,0-.75-.336-.75-.75s.336-.75,.75-.75h3c.414,0,.75,.336,.75,.75s-.336,.75-.75,.75Zm4.5,0h-1.25v1c0,.414-.336,.75-.75,.75s-.75-.336-.75-.75v-3.5c0-.414,.336-.75,.75-.75s.75,.336,.75,.75v1h1.25c.414,0,.75,.336,.75,.75s-.336,.75-.75,.75Zm0-4.5h-3c-.414,0-.75-.336-.75-.75s.336-.75,.75-.75h3c.414,0,.75,.336,.75,.75s-.336,.75-.75,.75Z"></path></g></svg>

#filter dumbComments emptyLines substitution
# This Source Code Form is subject to the terms of the Mozilla Public
# License, v. 2.0. If a copy of the MPL was not distributed with this
# file, You can obtain one at http://mozilla.org/MPL/2.0/.
<svg xmlns="http://www.w3.org/2000/svg" width="18" height="18" fill="context-fill" fill-opacity="context-fill-opacity" viewBox="0 0 18 18"><path d="M13.25 2h-8.5A2.75 2.75 0 0 0 2 4.75v8.5A2.75 2.75 0 0 0 4.75 16h8.5A2.75 2.75 0 0 0 16 13.25v-8.5A2.75 2.75 0 0 0 13.25 2m-8 4H6.5V5A.75.75 0 0 1 8 5v3.5a.75.75 0 0 1-1.5 0v-1H5.25a.75.75 0 0 1 0-1.5m3 6h-3a.75.75 0 0 1 0-1.5h3a.75.75 0 0 1 0 1.5m4.5 0H11.5v1a.75.75 0 0 1-1.5 0V9.5a.75.75 0 0 1 1.5 0v1h1.25a.75.75 0 0 1 0 1.5m0-4.5h-3a.75.75 0 0 1 0-1.5h3a.75.75 0 0 1 0 1.5"/></svg>
